dist/svg/static/system-linkedin-large.svg

<svg xmlns="http://www.w3.org/2000/svg" width="48" height="48" viewBox="0 0 48 48"><path d="M33.297 12h-19.6c-.936 0-1.697.742-1.697 1.658V33.34c0 .916.761 1.66 1.698 1.66h19.6c.938 0 1.702-.744 1.702-1.66V13.658c0-.915-.764-1.658-1.703-1.658zM18.822 31.6H15.41V20.623h3.412v10.976zm-1.706-12.477a1.978 1.978 0 1 1 0-3.956 1.978 1.978 0 0 1 0 3.956zM31.6 31.6h-3.41V26.26c0-1.273-.023-2.91-1.772-2.91-1.775 0-2.047 1.386-2.047 2.818v5.43H20.96V20.623h3.272v1.5h.046c.455-.863 1.568-1.773 3.227-1.773 3.455 0 4.093 2.273 4.093 5.228v6.02z" fill="currentColor"/><circle fill="none" stroke="currentColor" stroke-miterlimit="10" cx="23.5" cy="23.5" r="22"/></svg>

<?xml version="1.0" encoding="UTF-8" standalone="no"?>
<svg width="48px" height="48px" viewBox="0 0 48 48" version="1.1" xmlns="http://www.w3.org/2000/svg" xmlns:xlink="http://www.w3.org/1999/xlink">
    <!-- Generator: sketchtool 46.2 (44496) - http://www.bohemiancoding.com/sketch -->
    <title>system-linkedin-large</title>
    <desc>Created with sketchtool.</desc>
    <defs></defs>
    <g id="icons-published" stroke="none" stroke-width="1" fill="none" fill-rule="evenodd">
        <g id="briefing" transform="translate(-1728.000000, -1818.000000)"></g>
        <g id="system-linkedin-large">
            <path d="M33.3,12 L13.7,12 C12.8,12 12,12.7 12,13.7 L12,33.4 C12,34.3 12.8,35.1 13.7,35.1 L33.3,35.1 C34.2,35.1 35,34.4 35,33.4 L35,13.7 C35,12.7 34.2,12 33.3,12 Z M18.8,31.6 L15.4,31.6 L15.4,20.6 L18.8,20.6 L18.8,31.6 L18.8,31.6 Z M17.1,19.1 C16,19.1 15.1,18.2 15.1,17.1 C15.1,16 16,15.1 17.1,15.1 C18.2,15.1 19.1,16 19.1,17.1 C19.1,18.2 18.2,19.1 17.1,19.1 Z M31.6,31.6 L28.2,31.6 L28.2,26.3 C28.2,25 28.2,23.4 26.4,23.4 C24.6,23.4 24.4,24.8 24.4,26.2 L24.4,31.6 L21,31.6 L21,20.6 L24.3,20.6 L24.3,22.1 L24.3,22.1 C24.8,21.2 25.9,20.3 27.5,20.3 C31,20.3 31.6,22.6 31.6,25.5 L31.6,31.6 L31.6,31.6 Z" id="Shape" fill="#000000" fill-rule="nonzero"></path>
            <circle id="Oval" stroke="#000000" cx="23.5" cy="23.5" r="22"></circle>
        </g>
    </g>
</svg>
